icons/numix/16x16/mimetypes/application-script-blank.svg

<?xml version="1.0" encoding="UTF-8" standalone="no"?>
<svg
   xmlns:dc="http://purl.org/dc/elements/1.1/"
   xmlns:cc="http://creativecommons.org/ns#"
   xmlns:rdf="http://www.w3.org/1999/02/22-rdf-syntax-ns#"
   xmlns:svg="http://www.w3.org/2000/svg"
   xmlns="http://www.w3.org/2000/svg"
   xmlns:sodipodi="http://sodipodi.sourceforge.net/DTD/sodipodi-0.dtd"
   xmlns:inkscape="http://www.inkscape.org/namespaces/inkscape"
   width="16"
   height="16"
   viewBox="0 0 16 16"
   id="svg2"
   version="1.1"
   inkscape:version="0.48.5 r10040"
   sodipodi:docname="application-script-blank.svg">
  <metadata
     id="metadata20">
    <rdf:RDF>
      <cc:Work
         rdf:about="">
        <dc:format>image/svg+xml</dc:format>
        <dc:type
           rdf:resource="http://purl.org/dc/dcmitype/StillImage" />
      </cc:Work>
    </rdf:RDF>
  </metadata>
  <defs
     id="defs18" />
  <sodipodi:namedview
     pagecolor="#ffffff"
     bordercolor="#666666"
     borderopacity="1"
     objecttolerance="10"
     gridtolerance="10"
     guidetolerance="10"
     inkscape:pageopacity="0"
     inkscape:pageshadow="2"
     inkscape:window-width="1280"
     inkscape:window-height="970"
     id="namedview16"
     showgrid="true"
     inkscape:zoom="20.85965"
     inkscape:cx="7.1188018"
     inkscape:cy="7.0904674"
     inkscape:window-x="0"
     inkscape:window-y="0"
     inkscape:window-maximized="1"
     inkscape:current-layer="svg2">
    <inkscape:grid
       type="xygrid"
       id="grid3008" />
  </sodipodi:namedview>
  <path
     style="fill:#dcdcdc;fill-opacity:1"
     d="M 2.667969,-4.456e-4 C 2.324219,-4.456e-4 2,0.3378124 2,0.6964471 L 2,15.303108 C 2,15.641365 2.34375,16 2.667969,16 l 10.664062,0 C 13.65625,16 14,15.641365 14,15.303108 L 14,3.9995542 10,-4.456e-4 z"
     id="path4"
     inkscape:connector-curvature="0"
     sodipodi:nodetypes="ssssssccs" />
  <path
     style="fill:#000000;fill-opacity:0.19599998"
     d="m 10.583223,3.3315852 0.0154,0.01953 0.04005,-0.01953 z m 0.02978,0.667969 3.387,3.664062 0,-3.664062 z"
     id="path6"
     inkscape:connector-curvature="0"
     sodipodi:nodetypes="cccccccc" />
  <path
     style="fill:#ffffff;fill-opacity:0.39200003"
     d="m 10,-4.456e-4 3.996396,3.9999998 -3.383784,0 C 10.313513,3.9995542 10,3.6824372 10,3.3833382 z"
     id="path8"
     inkscape:connector-curvature="0"
     sodipodi:nodetypes="ccssc" />
  <g
     style="fill:#545454"
     id="g10"
     transform="matrix(1.4992678,0,0,1.5247768,-3.9941426,-4.5477238)">
    <path
       d="m 6.457031,10.328125 c 0,0.203125 0.054688,0.351563 0.160157,0.445313 0.105468,0.08984 0.261718,0.136718 0.464843,0.140624 l 0,0.417969 C 6.738281,11.328125 6.472656,11.242188 6.285156,11.074219 6.097656,10.90625 6,10.667969 6,10.359375 L 6,9.453125 C 6,9.246094 5.945312,9.101562 5.832031,9.011719 5.714844,8.921875 5.550781,8.878906 5.332031,8.878906 l 0,-0.421875 C 5.570312,8.453125 5.738281,8.40625 5.84375,8.3125 5.949219,8.222656 6,8.082031 6,7.890625 L 6,6.976562 C 6,6.667969 6.101562,6.429688 6.296875,6.257812 6.492188,6.085938 6.753906,6 7.082031,6 l 0,0.414062 c -0.414062,0.011719 -0.625,0.210938 -0.625,0.59375 l 0,0.882813 c 0,0.425781 -0.199219,0.679687 -0.605469,0.757813 l 0,0.035156 c 0.40625,0.078125 0.605469,0.332031 0.605469,0.757812 l 0,0.886719"
       id="path12"
       inkscape:connector-curvature="0" />
    <path
       d="M 10.140625,8.648438 C 9.738281,8.570312 9.535156,8.316406 9.535156,7.890625 l 0,-0.882813 C 9.535156,6.625 9.328125,6.425781 8.917969,6.414062 L 8.917969,6 c 0.335937,0 0.597656,0.085938 0.785156,0.261719 0.191406,0.171875 0.289063,0.410156 0.289063,0.714843 l 0,0.914063 c 0,0.191406 0.054687,0.335937 0.160156,0.425781 0.105468,0.089844 0.277344,0.136719 0.515625,0.140625 l 0,0.421875 c -0.222657,0 -0.390625,0.042969 -0.503907,0.132813 -0.113281,0.089843 -0.171874,0.234375 -0.171874,0.441406 l 0,0.90625 c 0,0.304687 -0.09375,0.542969 -0.28125,0.710937 -0.183594,0.171876 -0.449219,0.257813 -0.792969,0.261719 l 0,-0.417969 c 0.203125,-0.0039 0.355469,-0.05078 0.460937,-0.140624 0.105469,-0.09375 0.15625,-0.242188 0.15625,-0.445313 l 0,-0.886719 c 0,-0.226562 0.050782,-0.398437 0.148438,-0.519531 C 9.785156,8.804688 9.9375,8.722656 10.140625,8.683594 l 0,-0.035156"
       id="path14"
       inkscape:connector-curvature="0" />
  </g>
</svg>

<svg width="16" xmlns="http://www.w3.org/2000/svg" height="16" viewBox="0 0 16 16" xmlns:xlink="http://www.w3.org/1999/xlink">
<path style="fill:#dcdcdc" d="M 2.667969 0.332031 C 2.324219 0.332031 2 0.65625 2 1 L 2 15 C 2 15.324219 2.34375 15.667969 2.667969 15.667969 L 13.332031 15.667969 C 13.65625 15.667969 14 15.324219 14 15 L 14 4.667969 L 9.667969 0.332031 Z "/>
<path style="fill:#000;fill-opacity:.196" d="M 9.667969 4 L 9.6875 4.019531 L 9.738281 4 Z M 10.332031 4.667969 L 14 8.332031 L 14 4.667969 Z "/>
<path style="fill:#fff;fill-opacity:.392" d="M 9.667969 0.332031 L 14 4.667969 L 10.332031 4.667969 C 10.007812 4.667969 9.667969 4.324219 9.667969 4 Z "/>
<g style="fill:#545454">
<path d="M 6.457031 10.328125 C 6.457031 10.53125 6.511719 10.679688 6.617188 10.773438 C 6.722656 10.863281 6.878906 10.910156 7.082031 10.914062 L 7.082031 11.332031 C 6.738281 11.328125 6.472656 11.242188 6.285156 11.074219 C 6.097656 10.90625 6 10.667969 6 10.359375 L 6 9.453125 C 6 9.246094 5.945312 9.101562 5.832031 9.011719 C 5.714844 8.921875 5.550781 8.878906 5.332031 8.878906 L 5.332031 8.457031 C 5.570312 8.453125 5.738281 8.40625 5.84375 8.3125 C 5.949219 8.222656 6 8.082031 6 7.890625 L 6 6.976562 C 6 6.667969 6.101562 6.429688 6.296875 6.257812 C 6.492188 6.085938 6.753906 6 7.082031 6 L 7.082031 6.414062 C 6.667969 6.425781 6.457031 6.625 6.457031 7.007812 L 6.457031 7.890625 C 6.457031 8.316406 6.257812 8.570312 5.851562 8.648438 L 5.851562 8.683594 C 6.257812 8.761719 6.457031 9.015625 6.457031 9.441406 L 6.457031 10.328125 "/>
<path d="M 10.140625 8.648438 C 9.738281 8.570312 9.535156 8.316406 9.535156 7.890625 L 9.535156 7.007812 C 9.535156 6.625 9.328125 6.425781 8.917969 6.414062 L 8.917969 6 C 9.253906 6 9.515625 6.085938 9.703125 6.261719 C 9.894531 6.433594 9.992188 6.671875 9.992188 6.976562 L 9.992188 7.890625 C 9.992188 8.082031 10.046875 8.226562 10.152344 8.316406 C 10.257812 8.40625 10.429688 8.453125 10.667969 8.457031 L 10.667969 8.878906 C 10.445312 8.878906 10.277344 8.921875 10.164062 9.011719 C 10.050781 9.101562 9.992188 9.246094 9.992188 9.453125 L 9.992188 10.359375 C 9.992188 10.664062 9.898438 10.902344 9.710938 11.070312 C 9.527344 11.242188 9.261719 11.328125 8.917969 11.332031 L 8.917969 10.914062 C 9.121094 10.910156 9.273438 10.863281 9.378906 10.773438 C 9.484375 10.679688 9.535156 10.53125 9.535156 10.328125 L 9.535156 9.441406 C 9.535156 9.214844 9.585938 9.042969 9.683594 8.921875 C 9.785156 8.804688 9.9375 8.722656 10.140625 8.683594 L 10.140625 8.648438 "/>
</g>
</svg>
